X:186
T:Jackie Coleman's                                                                                  
M:C|                                                                                                
L:1/8                                                                                               
K:D                                                                                                 
AFFF EFDE|F2 AF BFAF|E2 BE dEBE|ABde fedB|                                                          
AFFF EFDE|F2 AF BFAF|E2 BE dEBE|1 ABde fddB:|2 ABde fddg||                                          
fddc dfag|fddd fagf|eAAA eAfA|eAAA efge|                                                            
fddc dfag|fddc dfaf|g2 gf gbag|1 faeg fddg:|2 faeg fd d2 |>|
